EdgeRunners:d=8,o=5,b=146:f4,f4,4p,g4,g4,4p,a4,a4,4p,d,d,4p,g4,g4,4p,a4,a4,4p,a#4,a#4,4p,e,e,4p,f4,f4,4p,g4,g4,4p,a4,a4,4p,d,d,4d,g4,g4,4p,a4,a4,4p,a#4,a#4,4p,e,e,4e,f4,f4,4p,g4,g4,4p,a4,a4,4p,d,d,4d,g4,g4,4p,a4,a4,4p,a#4,a#4,4p,e,e,4e,f4,f4,4p,g4,g4,4p,a4,a4,4p,d,d,4d,g4,g4,4p,a4,a4,4p,a#4,a#4,4p,e,e,4e,f4,f4,4p,g4,g4,4p,a4,a4,4p,d,d,4d,4g4,4g4,4g4,4g4,4g4,4g4,4g4,4g4,4f4,4f4,4f4,4f4,4f4,4f4,4f4,4f4,f4,f4,4c4,g4,g4,4p,a4,a4,p,d4,d,d,d,c4,g4,g4,4c4,a4,a4,4p,a#4,a#4,p,d4,e,e,e,c4,f4,f4,4c4,g4,g4,4p,a4,a4,p,d4,d,d,d,c4,g4,g4,4c4,a4,a4,4p,a#4,a#4,p,d4,e,e,e,c4,f4,f4,4c4,g4,g4,4p,a4,a4,p,d4,d,d,d,c4,g4,g4,4c4,a4,a4,4p,a#4,a#4,p,d4,e,e,e,c4,4g4,4g4,4g4,4g4,4g4,4g4,4g4,4g4,4f4,4f4,4f4,4f4,4f4,4f4,4f4,4f4,f4,f4,4p,f4,f4,4p,f4,f4,4p,f4,f4